X:155
T:I'm Waiting for You
Z: id:dc-reel-360
M:C
L:1/8
K:G Major
DF|G2dG BGdG|AGFG ABcA|BAGF GABc|defd cAFA|!
BGG2 BGAG|FGAB cBcA|BGBd cBAG|FDEF G2:|!
Bd|g2fg edBG|FDAD BDAD|EDEF GFGA|Bd^ce d2ef|!
g2fg edBG|FDAD BDAD|G2FE DGBd|cAFA G2:|!

